src/lib/packages/icons/src/assets/line/chats.svg

<svg width="24" height="24" viewBox="0 0 24 24" fill="none" xmlns="http://www.w3.org/2000/svg">
<path d="M21.0219 17.798C20.9749 17.652 20.938 17.435 21.029 17.237C21.501 16.225 21.7499 15.106 21.7499 14C21.7499 10.941 19.8949 8.15299 17.1129 6.92999C15.9219 4.17999 13.1829 2.25 10.0009 2.25C5.72888 2.25 2.25186 5.72602 2.25186 9.99902C2.25186 11.112 2.49885 12.232 2.97085 13.245C3.04185 13.396 3.04479 13.593 2.98379 13.788L2.32998 15.734C2.14598 16.286 2.28881 16.885 2.70181 17.298C2.99581 17.592 3.38389 17.748 3.78189 17.748C3.94389 17.748 4.10797 17.722 4.26797 17.669L6.20083 17.019C6.40683 16.953 6.60387 16.957 6.76187 17.031C6.81187 17.054 6.86592 17.07 6.91592 17.093C8.13792 19.885 10.9339 21.749 14.0009 21.749C15.1069 21.749 16.2268 21.5 17.2328 21.031C17.4358 20.938 17.6539 20.975 17.7929 21.02L19.737 21.671C20.29 21.852 20.888 21.709 21.3 21.297C21.711 20.885 21.8538 20.287 21.6708 19.73L21.0219 17.798ZM6.48696 15.474C6.23996 15.474 5.98581 15.514 5.73281 15.595L3.75186 16.21L4.40884 14.254C4.59084 13.683 4.55981 13.095 4.32681 12.606C3.95081 11.796 3.75186 10.894 3.75186 9.99799C3.75186 6.55199 6.55588 3.74902 10.0009 3.74902C13.4459 3.74902 16.2499 6.55199 16.2499 9.99799C16.2499 13.444 13.4459 16.247 10.0009 16.247C9.10488 16.247 8.20283 16.048 7.39883 15.675C7.11883 15.542 6.80996 15.474 6.48696 15.474ZM19.599 18.268L20.2079 20.248L18.2619 19.596C17.6959 19.412 17.1079 19.438 16.6039 19.669C15.7899 20.048 14.8889 20.249 13.9999 20.249C11.9479 20.249 10.1038 19.266 8.95083 17.666C9.29883 17.714 9.64988 17.747 10.0009 17.747C14.2729 17.747 17.7499 14.271 17.7499 9.99799C17.7499 9.64799 17.719 9.30602 17.673 8.96802C19.252 10.126 20.2499 11.989 20.2499 13.999C20.2499 14.888 20.0499 15.788 19.6679 16.607C19.4379 17.109 19.413 17.697 19.599 18.268Z" fill="currentColor"/>
</svg>

<svg xmlns="http://www.w3.org/2000/svg" width="24" height="24" fill="none"><path fill="currentColor" d="M21.022 17.798c-.047-.146-.084-.363.007-.561a7.71 7.71 0 0 0 .72-3.237c0-3.059-1.854-5.847-4.636-7.07-1.191-2.75-3.93-4.68-7.112-4.68-4.272 0-7.75 3.476-7.75 7.749 0 1.113.248 2.233.72 3.246a.762.762 0 0 1 .013.543l-.654 1.946a1.52 1.52 0 0 0 .372 1.564 1.524 1.524 0 0 0 1.566.371l1.933-.65a.768.768 0 0 1 .56.012c.05.023.105.039.155.062 1.222 2.792 4.018 4.656 7.085 4.656a7.709 7.709 0 0 0 3.232-.718c.203-.093.42-.056.56-.011l1.944.651a1.527 1.527 0 0 0 1.563-.374c.411-.412.554-1.01.37-1.567l-.648-1.932ZM6.487 15.474c-.247 0-.501.04-.754.121l-1.981.615.657-1.956c.182-.571.15-1.159-.082-1.648a6.236 6.236 0 0 1-.575-2.608A6.256 6.256 0 0 1 10 3.749a6.256 6.256 0 0 1 6.249 6.249A6.256 6.256 0 0 1 10 16.247a6.232 6.232 0 0 1-2.601-.572 2.115 2.115 0 0 0-.912-.201Zm13.112 2.794.609 1.98-1.946-.652a2.277 2.277 0 0 0-1.658.073 6.215 6.215 0 0 1-2.604.58 6.19 6.19 0 0 1-5.05-2.583c.349.048.7.081 1.05.081 4.273 0 7.75-3.476 7.75-7.749 0-.35-.031-.692-.077-1.03 1.579 1.158 2.577 3.021 2.577 5.031 0 .889-.2 1.789-.582 2.608-.23.502-.255 1.09-.069 1.661Z"/></svg>
